X:53
T:Within a Mile of Dublin
M:C|
L:1/8
Q:120
R:Reel (Key of Dmix)
K:Dmix
"D"ADDE FEFG | ADDB "C"c2Bc | "D"ADDE FEFG | "C"ABcA G2FG :|
"D"Addc AGFG | Adde ~f3c | Addc AGFG | ABcA "C"G2FG |
"D"Addc AGFG | Adde ~f3g | afge fde^c |dcAF "C"G2FG |]
